assets/piwigo/mono.svg

<svg viewBox="0 0 24 24" xmlns="http://www.w3.org/2000/svg"><path d="m16.712 12.777a4.713 4.713 0 0 1 -4.712 4.713 4.713 4.713 0 0 1 -4.713-4.713 4.713 4.713 0 0 1 4.713-4.711 4.713 4.713 0 0 1 4.712 4.711zm2.4-12.776c-2.572.058-2.358 1.544-8.237 1.555h-4.15a5.947 5.947 0 0 0 -5.948 5.947v10.55a5.947 5.947 0 0 0 5.948 5.947h10.55a5.947 5.947 0 0 0 5.948-5.947v-13.972l-.008-.018c0-.014.004-.028.004-.043 0-2.227-1.88-4.02-4.108-4.02zm.09 2.545a1.409 1.409 0 0 1 1.407 1.41 1.409 1.409 0 0 1 -1.409 1.408 1.409 1.409 0 0 1 -1.41-1.408 1.409 1.409 0 0 1 1.41-1.41zm-7.202 3.574a6.656 6.656 0 0 1 6.656 6.655 6.656 6.656 0 0 1 -6.656 6.659 6.656 6.656 0 0 1 -6.656-6.657 6.656 6.656 0 0 1 6.656-6.655z"/></svg>

<svg xmlns="http://www.w3.org/2000/svg" viewBox="0 0 24 24"><path d="M16.712 12.777A4.713 4.713 0 0 1 12 17.49a4.713 4.713 0 0 1-4.713-4.713A4.713 4.713 0 0 1 12 8.066a4.713 4.713 0 0 1 4.712 4.711m2.4-12.776c-2.572.058-2.358 1.544-8.237 1.555h-4.15A5.947 5.947 0 0 0 .777 7.503v10.55A5.947 5.947 0 0 0 6.725 24h10.55a5.947 5.947 0 0 0 5.948-5.947V4.081l-.008-.018c0-.014.004-.028.004-.043 0-2.227-1.88-4.02-4.108-4.02zm.09 2.545a1.41 1.41 0 0 1 1.407 1.41A1.41 1.41 0 0 1 19.2 5.364a1.41 1.41 0 0 1-1.41-1.408 1.41 1.41 0 0 1 1.41-1.41zM12 6.12a6.656 6.656 0 0 1 6.656 6.655A6.656 6.656 0 0 1 12 19.434a6.656 6.656 0 0 1-6.656-6.657A6.656 6.656 0 0 1 12 6.122z"/></svg>
